X: 80
T:Beaumont Rag - F
M:C|
L:1/8
R:Rag
K:F
b2b2g2g2|egec cd c2|a2a2f2f2|dcAc cdcA|!
GABc cd c2|GABc cdcA|FGAB cdcA|FGAB cd c2|!
b2b2g2g2|egec cd c2|a2a2f2f2|dcAc cdcA|!
Bcde f2 gf|agfd c2 dc|edce dcAG|F2 ff f2|!
DE|EGcE GdEG|cEGd dG c2|FAcF AdFA|cFAd dA c2|!
EGcE GdEG|cEGd dcde|fdcf dcAB|cdcA FEDE|!
EGcE GdEG|cEGd dG c2|FAcF AdFA|cFAd dAcA|!
Bcde f2 gf|agfd c2 dc|edce dcAG|F2 FF F2
